packages/foundations/assets/icons/functional/images/transportation/ship_12.svg

<svg width="12" height="12" viewBox="0 0 12 12" fill="none" xmlns="http://www.w3.org/2000/svg">
<g clip-path="url(#clip0_2214_7255)">
<path fill-rule="evenodd" clip-rule="evenodd" d="M9.60142 9.20476C9.64277 9.252 9.86826 9.59995 10.1998 9.59995C10.5313 9.59995 10.8 9.86858 10.8 10.2C10.8 10.5077 10.5417 10.8006 10.1976 10.8C9.86898 10.8 9.51977 10.6674 9.14995 10.4022C8.80371 10.6632 8.45377 10.7939 8.10011 10.794C7.74646 10.7942 7.39641 10.6637 7.04995 10.4028C6.69986 10.6636 6.34928 10.796 5.99821 10.8C5.64715 10.8039 5.29772 10.6715 4.94995 10.4028C4.60013 10.6636 4.25012 10.796 3.89992 10.8C3.54972 10.8039 3.19973 10.6715 2.84995 10.4028C2.50539 10.6636 2.15539 10.796 1.79995 10.8C1.46858 10.8 1.19995 10.5313 1.19995 10.2C1.19995 9.86858 1.46858 9.59995 1.79995 9.59995C1.87169 9.59995 2.15902 9.47887 2.3981 9.2052C2.63718 8.93154 3.06272 8.93154 3.3018 9.2052C3.34297 9.25232 3.59239 9.60001 3.89992 9.59995C4.20745 9.59989 4.4571 9.25206 4.49841 9.20484C4.73744 8.93168 5.16238 8.93165 5.40144 9.20478C5.44278 9.25202 5.70086 9.59996 6.00013 9.59995C6.2994 9.59994 6.55714 9.25199 6.59849 9.20475C6.83744 8.93179 7.26209 8.93167 7.50119 9.2045C7.54265 9.25181 7.80089 9.59989 8.10011 9.59995C8.39934 9.60002 8.65713 9.252 8.69848 9.20476C8.93752 8.93168 9.36238 8.93168 9.60142 9.20476ZM7.19995 1.19995C7.45233 1.19995 7.67502 1.3574 7.76181 1.58938L8.69995 4.19995H10.2C10.5394 4.19995 10.8112 4.48127 10.7996 4.82049C10.7539 6.15515 10.1699 7.40658 9.19291 8.25335C8.9425 8.47039 8.56357 8.44333 8.34654 8.19292C8.1295 7.94252 8.15656 7.56358 8.40696 7.34655C8.96841 6.85993 9.29795 6.30655 9.52615 5.39995C6.96947 5.38782 4.39407 5.38782 1.79995 5.39995C1.49225 5.39995 1.19995 5.10765 1.19995 4.79995C1.19995 4.49225 1.43158 4.23865 1.72998 4.20399L7.46215 4.19995L6.74995 2.39995H1.79995C1.49225 2.39995 1.19995 2.10765 1.19995 1.79995C1.19995 1.49225 1.43158 1.23865 1.72998 1.20399L7.19995 1.19995ZM7.19995 5.99995C7.53132 5.99995 7.79995 6.26858 7.79995 6.59995C7.79995 6.93132 7.53132 7.19995 7.19995 7.19995C6.86858 7.19995 6.59995 6.93132 6.59995 6.59995C6.59995 6.26858 6.86858 5.99995 7.19995 5.99995ZM4.79995 5.99995C5.13132 5.99995 5.39995 6.26858 5.39995 6.59995C5.39995 6.93132 5.13132 7.19995 4.79995 7.19995C4.46858 7.19995 4.19995 6.93132 4.19995 6.59995C4.19995 6.26858 4.46858 5.99995 4.79995 5.99995ZM2.39995 5.99995C2.73132 5.99995 2.99995 6.26858 2.99995 6.59995C2.99995 6.93132 2.73132 7.19995 2.39995 7.19995C2.06858 7.19995 1.79995 6.93132 1.79995 6.59995C1.79995 6.26858 2.06858 5.99995 2.39995 5.99995Z" fill="#1A1C1F"/>
</g>
<defs>
<clipPath id="clip0_2214_7255">
<rect width="12" height="12" fill="white"/>
</clipPath>
</defs>
</svg>

<svg xmlns="http://www.w3.org/2000/svg" width="12" height="12" fill="none"><g clip-path="url(#a)"><path fill="#1A1C1F" fill-rule="evenodd" d="M9.601 9.205c.042.047.267.395.599.395a.6.6 0 0 1 .6.6c0 .308-.258.6-.602.6q-.493 0-1.048-.398-.519.392-1.05.392t-1.05-.391q-.524.39-1.052.397-.525.006-1.048-.397-.525.39-1.05.397-.525.006-1.05-.397-.518.39-1.05.397a.6.6 0 0 1 0-1.2c.072 0 .359-.121.598-.395a.6.6 0 0 1 .904 0c.041.047.29.395.598.395.307 0 .557-.348.598-.395a.6.6 0 0 1 .903 0c.042.047.3.395.6.395.298 0 .556-.348.597-.395a.6.6 0 0 1 .903 0c.042.047.3.395.6.395.298 0 .556-.348.597-.395a.6.6 0 0 1 .903 0M7.2 1.2a.6.6 0 0 1 .562.39L8.7 4.2h1.5a.6.6 0 0 1 .6.62c-.046 1.335-.63 2.587-1.607 3.433a.6.6 0 1 1-.786-.906c.561-.487.891-1.04 1.12-1.947a820 820 0 0 0-7.727 0 .633.633 0 0 1-.6-.6.6.6 0 0 1 .53-.596L7.462 4.2 6.75 2.4H1.8a.633.633 0 0 1-.6-.6.6.6 0 0 1 .53-.596zm0 4.8a.6.6 0 1 1 0 1.2.6.6 0 0 1 0-1.2M4.8 6a.6.6 0 1 1 0 1.2.6.6 0 0 1 0-1.2M2.4 6a.6.6 0 1 1 0 1.2.6.6 0 0 1 0-1.2" clip-rule="evenodd"/></g><defs><clipPath id="a"><path fill="#fff" d="M0 0h12v12H0z"/></clipPath></defs></svg>
